svgs/thin/garage.svg

<svg xmlns="http://www.w3.org/2000/svg" viewBox="0 0 640 512"><!--! Font Awesome Pro 6.6.0 by @fontawesome - https://fontawesome.com License - https://fontawesome.com/license (Commercial License) Copyright 2024 Fonticons, Inc. --><path d="M329.1 20.4c-5.8-2.4-12.4-2.4-18.2 0L40.8 131.2c-15 6.2-24.8 20.8-24.8 37L16 504c0 4.4-3.6 8-8 8s-8-3.6-8-8L0 168.2c0-22.7 13.7-43.2 34.7-51.8L304.8 5.6c9.7-4 20.6-4 30.4 0L605.3 116.4c21 8.6 34.7 29.1 34.7 51.8L640 504c0 4.4-3.6 8-8 8s-8-3.6-8-8l0-335.8c0-16.2-9.8-30.8-24.8-37L329.1 20.4zM120 208c-4.4 0-8 3.6-8 8l0 104 416 0 0-104c0-4.4-3.6-8-8-8l-400 0zM528 336l-416 0 0 168c0 4.4-3.6 8-8 8s-8-3.6-8-8l0-288c0-13.3 10.7-24 24-24l400 0c13.3 0 24 10.7 24 24l0 288c0 4.4-3.6 8-8 8s-8-3.6-8-8l0-168zM264 416l112 0c4.4 0 8 3.6 8 8s-3.6 8-8 8l-112 0c-4.4 0-8-3.6-8-8s3.6-8 8-8z"/></svg>

<svg xmlns="http://www.w3.org/2000/svg" viewBox="0 0 640 512"><!--! Font Awesome Pro 6.4.0 by @fontawesome - https://fontawesome.com License - https://fontawesome.com/license (Commercial License) Copyright 2023 Fonticons, Inc. --><path d="M329.1 20.4c-5.8-2.4-12.4-2.4-18.2 0L40.8 131.2c-15 6.2-24.8 20.8-24.8 37V504c0 4.4-3.6 8-8 8s-8-3.6-8-8V168.2c0-22.7 13.7-43.2 34.7-51.8L304.8 5.6c9.7-4 20.6-4 30.4 0L605.3 116.4c21 8.6 34.7 29.1 34.7 51.8V504c0 4.4-3.6 8-8 8s-8-3.6-8-8V168.2c0-16.2-9.8-30.8-24.8-37L329.1 20.4zM120 208c-4.4 0-8 3.6-8 8V320H528V216c0-4.4-3.6-8-8-8H120zM528 336H112V504c0 4.4-3.6 8-8 8s-8-3.6-8-8V216c0-13.3 10.7-24 24-24H520c13.3 0 24 10.7 24 24V504c0 4.4-3.6 8-8 8s-8-3.6-8-8V336zM264 416H376c4.4 0 8 3.6 8 8s-3.6 8-8 8H264c-4.4 0-8-3.6-8-8s3.6-8 8-8z"/></svg>
